packages/assets/static/images/icons/building-apartment.svg

<svg width="24" height="24" viewBox="0 0 24 24" xmlns="http://www.w3.org/2000/svg">
<path d="M22.5 19.5H21.75V6.75C21.75 6.55109 21.671 6.36032 21.5303 6.21967C21.3897 6.07902 21.1989 6 21 6H17.25V3.75C17.25 3.55109 17.171 3.36032 17.0303 3.21967C16.8897 3.07902 16.6989 3 16.5 3H7.5C7.30109 3 7.11032 3.07902 6.96967 3.21967C6.82902 3.36032 6.75 3.55109 6.75 3.75V9H3C2.80109 9 2.61032 9.07902 2.46967 9.21967C2.32902 9.36032 2.25 9.55109 2.25 9.75V19.5H1.5C1.30109 19.5 1.11032 19.579 0.96967 19.7197C0.829018 19.8603 0.75 20.0511 0.75 20.25C0.75 20.4489 0.829018 20.6397 0.96967 20.7803C1.11032 20.921 1.30109 21 1.5 21H22.5C22.6989 21 22.8897 20.921 23.0303 20.7803C23.171 20.6397 23.25 20.4489 23.25 20.25C23.25 20.0511 23.171 19.8603 23.0303 19.7197C22.8897 19.579 22.6989 19.5 22.5 19.5ZM3.75 10.5H7.5C7.69891 10.5 7.88968 10.421 8.03033 10.2803C8.17098 10.1397 8.25 9.94891 8.25 9.75V4.5H15.75V6.75C15.75 6.94891 15.829 7.13968 15.9697 7.28033C16.1103 7.42098 16.3011 7.5 16.5 7.5H20.25V19.5H14.25V15.75C14.25 15.5511 14.171 15.3603 14.0303 15.2197C13.8897 15.079 13.6989 15 13.5 15H10.5C10.3011 15 10.1103 15.079 9.96967 15.2197C9.82902 15.3603 9.75 15.5511 9.75 15.75V19.5H3.75V10.5ZM12.75 19.5H11.25V16.5H12.75V19.5ZM10.5 6.75C10.5 6.55109 10.579 6.36032 10.7197 6.21967C10.8603 6.07902 11.0511 6 11.25 6H12.75C12.9489 6 13.1397 6.07902 13.2803 6.21967C13.421 6.36032 13.5 6.55109 13.5 6.75C13.5 6.94891 13.421 7.13968 13.2803 7.28033C13.1397 7.42098 12.9489 7.5 12.75 7.5H11.25C11.0511 7.5 10.8603 7.42098 10.7197 7.28033C10.579 7.13968 10.5 6.94891 10.5 6.75ZM10.5 9.75C10.5 9.55109 10.579 9.36032 10.7197 9.21967C10.8603 9.07902 11.0511 9 11.25 9H12.75C12.9489 9 13.1397 9.07902 13.2803 9.21967C13.421 9.36032 13.5 9.55109 13.5 9.75C13.5 9.94891 13.421 10.1397 13.2803 10.2803C13.1397 10.421 12.9489 10.5 12.75 10.5H11.25C11.0511 10.5 10.8603 10.421 10.7197 10.2803C10.579 10.1397 10.5 9.94891 10.5 9.75ZM15.75 9.75C15.75 9.55109 15.829 9.36032 15.9697 9.21967C16.1103 9.07902 16.3011 9 16.5 9H18C18.1989 9 18.3897 9.07902 18.5303 9.21967C18.671 9.36032 18.75 9.55109 18.75 9.75C18.75 9.94891 18.671 10.1397 18.5303 10.2803C18.3897 10.421 18.1989 10.5 18 10.5H16.5C16.3011 10.5 16.1103 10.421 15.9697 10.2803C15.829 10.1397 15.75 9.94891 15.75 9.75ZM8.25 12.75C8.25 12.9489 8.17098 13.1397 8.03033 13.2803C7.88968 13.421 7.69891 13.5 7.5 13.5H6C5.80109 13.5 5.61032 13.421 5.46967 13.2803C5.32902 13.1397 5.25 12.9489 5.25 12.75C5.25 12.5511 5.32902 12.3603 5.46967 12.2197C5.61032 12.079 5.80109 12 6 12H7.5C7.69891 12 7.88968 12.079 8.03033 12.2197C8.17098 12.3603 8.25 12.5511 8.25 12.75ZM8.25 15.75C8.25 15.9489 8.17098 16.1397 8.03033 16.2803C7.88968 16.421 7.69891 16.5 7.5 16.5H6C5.80109 16.5 5.61032 16.421 5.46967 16.2803C5.32902 16.1397 5.25 15.9489 5.25 15.75C5.25 15.5511 5.32902 15.3603 5.46967 15.2197C5.61032 15.079 5.80109 15 6 15H7.5C7.69891 15 7.88968 15.079 8.03033 15.2197C8.17098 15.3603 8.25 15.5511 8.25 15.75ZM10.5 12.75C10.5 12.5511 10.579 12.3603 10.7197 12.2197C10.8603 12.079 11.0511 12 11.25 12H12.75C12.9489 12 13.1397 12.079 13.2803 12.2197C13.421 12.3603 13.5 12.5511 13.5 12.75C13.5 12.9489 13.421 13.1397 13.2803 13.2803C13.1397 13.421 12.9489 13.5 12.75 13.5H11.25C11.0511 13.5 10.8603 13.421 10.7197 13.2803C10.579 13.1397 10.5 12.9489 10.5 12.75ZM15.75 12.75C15.75 12.5511 15.829 12.3603 15.9697 12.2197C16.1103 12.079 16.3011 12 16.5 12H18C18.1989 12 18.3897 12.079 18.5303 12.2197C18.671 12.3603 18.75 12.5511 18.75 12.75C18.75 12.9489 18.671 13.1397 18.5303 13.2803C18.3897 13.421 18.1989 13.5 18 13.5H16.5C16.3011 13.5 16.1103 13.421 15.9697 13.2803C15.829 13.1397 15.75 12.9489 15.75 12.75ZM15.75 15.75C15.75 15.5511 15.829 15.3603 15.9697 15.2197C16.1103 15.079 16.3011 15 16.5 15H18C18.1989 15 18.3897 15.079 18.5303 15.2197C18.671 15.3603 18.75 15.5511 18.75 15.75C18.75 15.9489 18.671 16.1397 18.5303 16.2803C18.3897 16.421 18.1989 16.5 18 16.5H16.5C16.3011 16.5 16.1103 16.421 15.9697 16.2803C15.829 16.1397 15.75 15.9489 15.75 15.75Z"/>
</svg>

<svg viewBox="0 0 24 24" xmlns="http://www.w3.org/2000/svg" aria-hidden="true" fill="currentColor"><path d="M22.5 19.5h-.75V6.75A.75.75 0 0 0 21 6h-3.75V3.75A.75.75 0 0 0 16.5 3h-9a.75.75 0 0 0-.75.75V9H3a.75.75 0 0 0-.75.75v9.75H1.5a.75.75 0 1 0 0 1.5h21a.75.75 0 1 0 0-1.5m-18.75-9H7.5a.75.75 0 0 0 .75-.75V4.5h7.5v2.25a.75.75 0 0 0 .75.75h3.75v12h-6v-3.75a.75.75 0 0 0-.75-.75h-3a.75.75 0 0 0-.75.75v3.75h-6zm9 9h-1.5v-3h1.5zM10.5 6.75a.75.75 0 0 1 .75-.75h1.5a.75.75 0 1 1 0 1.5h-1.5a.75.75 0 0 1-.75-.75m0 3a.75.75 0 0 1 .75-.75h1.5a.75.75 0 1 1 0 1.5h-1.5a.75.75 0 0 1-.75-.75m5.25 0A.75.75 0 0 1 16.5 9H18a.75.75 0 1 1 0 1.5h-1.5a.75.75 0 0 1-.75-.75m-7.5 3a.75.75 0 0 1-.75.75H6A.75.75 0 1 1 6 12h1.5a.75.75 0 0 1 .75.75m0 3a.75.75 0 0 1-.75.75H6A.75.75 0 1 1 6 15h1.5a.75.75 0 0 1 .75.75m2.25-3a.75.75 0 0 1 .75-.75h1.5a.75.75 0 1 1 0 1.5h-1.5a.75.75 0 0 1-.75-.75m5.25 0a.75.75 0 0 1 .75-.75H18a.75.75 0 1 1 0 1.5h-1.5a.75.75 0 0 1-.75-.75m0 3a.75.75 0 0 1 .75-.75H18a.75.75 0 1 1 0 1.5h-1.5a.75.75 0 0 1-.75-.75"/></svg>
